X:1
T:Following the Star
T:Following the Star
T:Carl Harold Lowden
T:Elsie Duncan Yale, 1911
T:Public Domain Courtesy of the Cyber Hymnal™
T:Public Domain Courtesy of the Cyber Hymnal™
C:Carl Harold Lowden
Z:Public Domain
Z:Courtesy of the Cyber Hymnal™
%%score ( 1 2 ) ( 3 4 )
L:1/8
Q:1/4=110
M:4/4
K:Bb
V:1 treble 
V:2 treble 
V:3 bass 
V:4 bass 
V:1
 [DF]2 [DG]2 [DA]2 [DB]2 | e4 A4 | [EA]2 [Ec]2 [EB]2 [EG]2 | F6 D2 | [DF]2 [DG]2 [DA]2 [DB]2 | %5
w: 1.~Star in beau- ty|beam- ing,|On the sha- dowed|plain, O’er|* the val- leys|
w: 2.~Star of light su-|per- nal,|Lead a- long the|way, For|* the King e-|
w: 3.~Star of fade- less|glo- ry,|By thy won- drous|rays Earth|* shall know the|
 d4 A4 | [^CB]2 [CA]2 [CB]2 [CA]2 | [Dd]6 z2 | [Ae]2 [Ec]2 [EG]2 [EA]2 | B4 F4 | %10
w: gleam- ing,|Pour thy gold- en|rain.|Shine in roy- al|splen- dor,|
w: ter- nal|Comes to earth to-|day.|Des- erts may be|drear- y,|
w: sto- ry,|Her Re- deem- er|praise.|Thro’ the dark and|dan- ger,|
 [Ae]2 [Ac]2 [EG]2 [EA]2 | [DB]6 z2 | [_DB]2 [DB]2 [EB]2 [=EB]2 | [FB]4 [B,F]4 | %14
w: Pil- grims hi- ther|bring.|Shed thy ra- diance|ten- der,|
w: Yet we joy- ful|sing;|Can our feet be|wea- ry,|
w: Faith our feet shall|wing,|Till we reach the|man- ger,|
 [B,G]2 [B,G]2 [CA]2 [DB]2 | ([Ad]4 [Ec]4) ||"^Refrain" [FB]2 [DA]2 [DG]2 [DA]2 | F6 D2 | %18
w: On the new- born|King. *|||
w: Hast- ening to our|king? *|Fol- low- ing the|star, Fol-|
w: Till we see our|king. *|||
 [B,D]2 [DF]2 [DG]2 [FB]2 | e6 A2 | [Ae]2 [Ec]2 [E=B]2 [Ac]2 | [Fd]2 [DB]2 [DA]2 [FB]2 | c4 c4 | %23
w: |||||
w: * low- ing the|star, Joy-|* ful- ly we|jour- ney, Pil- grims|from a-|
w: |||||
 [Fc]6 z2 | [FB]2 [DA]2 [DG]2 [DA]2 | G4 F4 | [DB]2 [DB]2 [Gc]2 [Gc]2 | [^Fd]6 z2 | %28
w: |||||
w: far.|Led by light ce-|les- tial,|’Neath the star- ry|skies,|
w: |||||
 [Fd]2 [=Bf]2 [Fe]2 [Gd]2 | [Gc]2 [Gd]2 [Ge]2 [G=e]2 | [Ff]2 [Gd]2 [Ec]3 [DB] | [DB]6 z2 |] %32
w: ||||
w: March a- long with|joy- ful song, To|where Mes- si- ah|lies.|
w: ||||
V:2
 x8 | (A2 A2) (E2 E2) | x8 | D2 D2 D2 x2 | x8 | (F2 F2) (D2 D2) | x8 | x8 | x8 | (F2 F2) (D2 D2) | %10
 x8 | x8 | x8 | x8 | x8 | x8 || x8 | D2 D2 D2 x2 | x8 | A2 A2 A2 x2 | x8 | x8 | (C2 =E2) (C2 B2) | %23
 x8 | x8 | (E2 E2) (E2 E2) | x8 | x8 | x8 | x8 | x8 | x8 |] %32
V:3
 [B,,F,]2 [F,,F,]2 [B,,F,]2 [F,,F,]2 | ([C,F,]2 [F,,F,]2) ([C,F,]2 [F,,F,]2) | %2
 [C,F,]2 [F,,F,]2 [C,F,]2 [F,,F,]2 | ([B,,F,]2 [F,,F,]2 [B,,F,]2 [F,,F,]2) | %4
 [B,,F,]2 [F,,F,]2 [B,,F,]2 [F,,F,]2 | [A,,F,]2 [A,,F,]2 [A,,F,]2 [A,,F,]2 | %6
 [A,,G,]2 [A,,G,]2 [A,,G,]2 [A,,G,]2 | ([D,F,]2 [F,A,]>[F,A,] [D,A,]2 [D,A,]2) | %8
 [C,F,]2 [F,,F,]2 [C,F,]2 [F,,F,]2 | ([B,,F,]2 [F,,F,]2) ([B,,F,]2 [F,,F,]2) | %10
 [C,F,]2 [F,,F,]2 [C,F,]2 [F,,F,]2 | ([B,,F,]2 F,2) D,2 B,,2 | %12
 [=G,,_G,]2 [_G,,G,]2 [G,,G,]2 [G,,G,]2 | [F,,F,]4 [F,,F,]4 | [F,,F,]2 [F,,F,]2 [F,,F,]2 [F,,F,]2 | %15
 [F,,F,]8 || [B,,F,]2 [F,,F,]2 [B,,F,]2 [F,,F,]2 | ([B,,F,]2 [F,,F,]2 [B,,F,]2 [F,,F,]2) | %18
 [B,,F,]2 [F,,F,]2 [B,,F,]2 [F,,F,]2 | ([C,F,]2 [F,,F,]2 [C,F,]2 [F,,F,]2) | %20
 [C,F,]2 [F,,F,]2 [C,F,]2 [F,,F,]2 | [B,,F,]2 [F,,F,]2 [B,,F,]2 [F,,F,]2 | %22
 ([C,,C,]2 [B,,B,]2) ([A,,A,]2 [G,,G,]2) | ([F,,F,]2 [E,,E,]2 [D,,D,]2 [C,,C,]2) | %24
 [B,,F,]2 [F,,F,]2 [B,,F,]2 [F,,F,]2 | ([C,F,]2 [F,,F,]2) ([C,F,]2 [F,,F,]2) | %26
 [B,,F,]2 [G,,G,]2 [E,,E,]2 [E,,E,]2 | ([D,,D,]2 [^E,,^F,]2 [A,,A,]2 [C,C]2) | %28
 [=B,,=B,]2 [G,,G,]2 [G,,G,]2 [F,,F,]2 | [E,,E,]2 [D,,D,]2 [C,,C,]2 [^C,,^C,]2 | %30
 [D,,D,]2 [B,,,B,,]2 [F,,A,]3 [B,,B,] | [B,,B,]6 z2 |] %32
V:4
 x8 | x8 | x8 | x8 | x8 | x8 | x8 | x8 | x8 | x8 | x8 | x2 (F,2 D,2 B,,2) | x8 | x8 | x8 | x8 || %16
 x8 | x8 | x8 | x8 | x8 | x8 | x8 | x8 | x8 | x8 | x8 | x8 | x8 | x8 | x8 | x8 |] %32

